assets/features/channel/europe-and-america/blik.svg

<svg width="80" height="80" viewBox="0 0 80 80" fill="none" xmlns="http://www.w3.org/2000/svg">
<rect width="80" height="80" rx="8" fill="#030303"/>
<path d="M25.5355 34.4018C27.8532 34.4018 29.7321 32.521 29.7321 30.2009C29.7321 27.8808 27.8532 26 25.5355 26C23.2178 26 21.3389 27.8808 21.3389 30.2009C21.3389 32.521 23.2178 34.4018 25.5355 34.4018Z" fill="white"/>
<path d="M33.0422 27.3608H37.7117V53.9862H33.0422V27.3608Z" fill="white"/>
<path d="M41.8491 36.5317H46.5777V53.9269H41.8491V36.5317Z" fill="white"/>
<path d="M20.8661 36.3543C19.3884 36.3543 17.9698 36.7093 16.6695 37.4193V27.3608H12V45.2294C12 50.1403 15.9602 54.1045 20.8661 54.1045C25.772 54.1045 29.7321 50.1403 29.7321 45.2294C29.7321 40.3185 25.772 36.3543 20.8661 36.3543ZM20.8661 49.4894C18.5018 49.4894 16.6104 47.5961 16.6104 45.2294C16.6104 42.8627 18.5018 40.9693 20.8661 40.9693C23.2304 40.9693 25.1218 42.8627 25.1218 45.2294C25.1218 47.5961 23.2304 49.4894 20.8661 49.4894Z" fill="white"/>
<path d="M25.5355 34.4018C27.8532 34.4018 29.7321 32.521 29.7321 30.2009C29.7321 27.8808 27.8532 26 25.5355 26C23.2178 26 21.3389 27.8808 21.3389 30.2009C21.3389 32.521 23.2178 34.4018 25.5355 34.4018Z" fill="url(#paint0_linear_2497_22776)"/>
<path d="M33.0422 27.3608H37.7117V53.9862H33.0422V27.3608Z" fill="white"/>
<path d="M41.8491 36.5317H46.5777V53.9269H41.8491V36.5317Z" fill="white"/>
<path d="M20.8661 36.3543C19.3884 36.3543 17.9698 36.7093 16.6695 37.4193V27.3608H12V45.2294C12 50.1403 15.9602 54.1045 20.8661 54.1045C25.772 54.1045 29.7321 50.1403 29.7321 45.2294C29.7321 40.3185 25.772 36.3543 20.8661 36.3543ZM20.8661 49.4894C18.5018 49.4894 16.6104 47.5961 16.6104 45.2294C16.6104 42.8627 18.5018 40.9693 20.8661 40.9693C23.2304 40.9693 25.1218 42.8627 25.1218 45.2294C25.1218 47.5961 23.2304 49.4894 20.8661 49.4894Z" fill="white"/>
<path d="M61.9711 53.9167H68L60.7298 44.5683L67.2907 36.5215H61.7938L55.4102 44.6275V27.3506H50.7407V53.9759H55.4102V44.6866L61.9711 53.9167Z" fill="white"/>
<defs>
<linearGradient id="paint0_linear_2497_22776" x1="22.5688" y1="33.1287" x2="28.5421" y2="27.2467" gradientUnits="userSpaceOnUse">
<stop stop-color="#E52F08"/>
<stop offset="1" stop-color="#E94F96"/>
</linearGradient>
</defs>
</svg>

<svg xmlns="http://www.w3.org/2000/svg" width="80" height="80" fill="none" viewBox="0 0 80 80"><rect width="80" height="80" fill="#030303" rx="8"/><path fill="#fff" d="M25.536 34.402a4.2 4.2 0 0 0 4.196-4.201A4.2 4.2 0 0 0 25.536 26a4.2 4.2 0 0 0-4.197 4.2 4.2 4.2 0 0 0 4.197 4.202m7.506-7.042h4.67v26.626h-4.67zm8.808 9.172h4.728v17.395h-4.729z"/><path fill="#fff" d="M20.866 36.354a8.7 8.7 0 0 0-4.196 1.065V27.361H12v17.868a8.86 8.86 0 0 0 8.866 8.876 8.86 8.86 0 0 0 8.866-8.876 8.86 8.86 0 0 0-8.866-8.875m0 13.135a4.24 4.24 0 0 1-4.256-4.26 4.24 4.24 0 0 1 4.256-4.26 4.24 4.24 0 0 1 4.256 4.26 4.24 4.24 0 0 1-4.256 4.26"/><path fill="url(#a)" d="M25.536 34.402a4.2 4.2 0 0 0 4.196-4.201A4.2 4.2 0 0 0 25.536 26a4.2 4.2 0 0 0-4.197 4.2 4.2 4.2 0 0 0 4.197 4.202"/><path fill="#fff" d="M33.042 27.36h4.67v26.626h-4.67zm8.808 9.172h4.728v17.395h-4.729zm-20.984-.178a8.7 8.7 0 0 0-4.196 1.065V27.361H12v17.868a8.86 8.86 0 0 0 8.866 8.876 8.86 8.86 0 0 0 8.866-8.876 8.86 8.86 0 0 0-8.866-8.875m0 13.135a4.24 4.24 0 0 1-4.256-4.26 4.24 4.24 0 0 1 4.256-4.26 4.24 4.24 0 0 1 4.256 4.26 4.24 4.24 0 0 1-4.256 4.26m41.105 4.428H68l-7.27-9.349 6.56-8.046h-5.496l-6.384 8.105V27.351h-4.67v26.625h4.67v-9.29z"/><defs><linearGradient id="a" x1="22.569" x2="28.542" y1="33.129" y2="27.247" gradientUnits="userSpaceOnUse"><stop stop-color="#e52f08"/><stop offset="1" stop-color="#e94f96"/></linearGradient></defs></svg>
